icons/beaker-16.svg

<svg xmlns="http://www.w3.org/2000/svg" width="16" height="16" viewBox="0 0 16 16"><path fill-rule="evenodd" d="M5 5.782V2.5h-.25a.75.75 0 010-1.5h6.5a.75.75 0 010 1.5H11v3.282l3.666 5.76C15.619 13.04 14.543 15 12.767 15H3.233c-1.776 0-2.852-1.96-1.899-3.458L5 5.782zM9.5 2.5h-3V6a.75.75 0 01-.117.403L4.73 9h6.54L9.617 6.403A.75.75 0 019.5 6V2.5zm-6.9 9.847L3.775 10.5h8.45l1.175 1.847a.75.75 0 01-.633 1.153H3.233a.75.75 0 01-.633-1.153z"/></svg>

<svg xmlns="http://www.w3.org/2000/svg" width="16" height="16" viewBox="0 0 16 16">
  <defs/>
  <path d="M5,5.782 L5,2.5 L4.75,2.5 C4.336,2.5 4,2.164 4,1.75 C4,1.336 4.336,1 4.75,1 L11.25,1 C11.664,1 12,1.336 12,1.75 C12,2.164 11.664,2.5 11.25,2.5 L11,2.5 L11,5.782 L14.666,11.542 C15.619,13.04 14.543,15 12.767,15 L3.233,15 C1.457,15 0.381,13.04 1.334,11.542 Z M2.6,12.347 C2.453,12.578 2.443,12.871 2.575,13.111 C2.707,13.351 2.959,13.5 3.233,13.5 L12.767,13.5 C13.041,13.5 13.293,13.351 13.425,13.111 C13.557,12.871 13.547,12.578 13.4,12.347 L12.225,10.5 L3.775,10.5 Z M9.5,2.5 L6.5,2.5 L6.5,6 C6.5,6.143 6.46,6.283 6.383,6.403 L4.73,9 L11.27,9 L9.617,6.403 C9.54,6.283 9.5,6.143 9.5,6 Z"/>
</svg>
